public/img/unsorted.svg

<svg width="24" height="24" viewBox="0 0 24 24" fill="none" xmlns="http://www.w3.org/2000/svg">
<path fill-rule="evenodd" clip-rule="evenodd" d="M15.2044 15.3211L16.8012 13.7243L17.5083 14.4314L15.058 16.8817L14.7044 17.2353L14.3509 16.8817L11.9006 14.4314L12.6077 13.7243L14.2044 15.3211V7.21705H15.2044V15.3211ZM9.30385 8.91421V17.0182H10.3038V8.91421L11.9006 10.511L12.6077 9.80385L10.1574 7.35355L9.80385 7L9.45029 7.35355L6.99999 9.80385L7.7071 10.511L9.30385 8.91421Z" fill="black"/>
</svg>

<svg xmlns="http://www.w3.org/2000/svg" width="24" height="24" fill="none" viewBox="0 0 24 24">
  <path stroke="#000" stroke-width="2" fill-rule="evenodd" d="M15.204 15.321l1.597-1.597.707.707-2.45 2.45-.354.354-.353-.353-2.45-2.45.707-.708 1.596 1.597V7.217h1v8.104zm-5.9-6.407v8.104h1V8.914l1.597 1.597.707-.707-2.45-2.45L9.803 7l-.354.354L7 9.804l.707.707 1.597-1.597z" clip-rule="evenodd"/>
</svg>
